!!!!SEGMENT: pl-kk--kk-i-7--036-006_pekiel-bartlomiej--missa-agnus-dei.krn
!!!cenid: 16xx:835
!!!COM: Pękiel, Bartłomiej
!!!COM-rismid: pe30105642
!!!CDT: <1633-~1670
!!!CNT: Polish
!!!OPR: Missa
!!!OTL: Agnus Dei
!!!OMV: 006
!!!PDT: 1669
!!!AGN: Sacred; Mass
!!!SMS-siglum: PL-Kk
!!!SMS-shelfmark: Kk.I.7
!!!SMS-shelfwork: 036-006 M
!!!SMS-variant:
!!!SMS-altvar:
!!!NIFC-rismid: 300258113
!!!URL-scan: http://repozytorium.nifc.pl/skany/pl-kk-nut--i-7
!!!ONB-nifc: UWAGA: C (skan 0027-0032, s.49-58), A (0114-0118, s.48-57), T(0188-0193, s.41-50), B(0280-0285, s.49-57). Części Mszy: 1. Kyrie, 2. Et in terra, 3. Patrem,. 4. Sanctus, 5. Benedictus, 6. Agnus Dei
!!!key:
**kern	**text	**kern	**text	**kern	**text	**kern	**text
*part4	*part4	*part3	*part3	*part2	*part2	*part1	*part1
*staff4	*staff4	*staff3	*staff3	*staff2	*staff2	*staff1	*staff1
*Ibass	*	*Itenor	*	*Ialto	*	*Isoprn	*
*I"Bassus.	*	*I"Tenor.	*	*I"Altus.	*	*I"Cantus.	*
*I'B	*	*I'T	*	*I'A	*	*I'S	*
*clefF4	*	*clefC1	*	*clefC4	*	*clefC3	*
*k[]	*	*k[]	*	*k[]	*	*k[]	*
*d:	*	*d:	*	*d:	*	*d:	*
*M2/1	*	*M2/1	*	*M2/1	*	*M2/1	*
*met(c|)	*	*met(c|)	*	*met(c|)	*	*met(c|)	*
=1-	=1-	=1-	=1-	=1-	=1-	=1-	=1-
!	!	!LO:TX:t=P:problem=pozostałe utwory w książce tenoru zapisane w kluczu F4, tutaj zaburzenie	!	!	!	!LO:TX:t=Imum	!
!LO:TX:t=Imum.	!	!	!	!LO:TX:t=Imum	!	!LO:TX:A:t=P:all\right:GLOBAL:problem	!
00r	.	1r	.	2.D/	A-	0d\	A-
.	.	.	.	4E/	.	.	.
.	.	1d/	A-	4F/	.	.	.
.	.	.	.	4D/	.	.	.
.	.	.	.	1d\	.	.	.
=2-	=2-	=2-	=2-	=2-	=2-	=2-	=2-
!	!	!	!	!	!	!LO:TX:t=P:problem=kreska pseudotaktowa	!
.	.	2e/	-gnus	.	.	1A/	-gnus
*	*	*	*	*2\right	*	*	*
!	!	!	!	!LO:TX:t=P:problem=kreska pseudotaktowa	!	!	!
.	.	1a\	.	2c\	-gnus	.	.
*	*	*	*	*lig	*	*	*
.	.	.	.	1B\	De-	1.d\	.
!	!	!LO:TX:t=P:problem=kreska pseudotaktowa	!	!	!	!	!
.	.	2g/	De-	.	.	.	.
=3-	=3-	=3-	=3-	=3-	=3-	=3-	=3-
*	*	*	*	*col	*	*	*
0r	.	2e/	.	2.A\	.	.	.
.	.	2d/	.	.	.	2c/	De-
!	!	!	!	!	!	!LO:TX:t=P:problem=kreska pseudotaktowa	!
*	*	*	*	*Xlig	*	*	*
!	!	!	!	!LO:TX:t=P:problem=kreska pseudotaktowa	!	!	!
.	.	.	.	4G/	.	.	.
*	*	*	*	*Xcol	*	*lig	*
.	.	2c/	.	4F/	.	1f\	.
.	.	.	.	4E/	.	.	.
.	.	1dd\	.	4F/	.	.	.
.	.	.	.	4D/	.	.	.
=4-	=4-	=4-	=4-	=4-	=4-	=4-	=4-
!LO:TX:t=P:problem=kreska pseudotaktowa	!	!	!	!LO:TX:t=P:problem=kreska pseudotaktowa	!	!	!
1r	.	.	.	0A\	-i	1e\	.
*	*	*2\right	*	*	*	*	*
.	.	2cc#X\	.	.	.	.	.
!	!	!LO:TX:t=P:problem=kreska pseudotaktowa	!	!	!	!	!
!	!	!LO:TX:t=P:problem=# above	!	!	!	!	!
*	*	*	*	*	*	*Xlig	*
*	*	*	*	*	*	*2\right	*
!	!	!LO:TX:t=P:problem=cezura na 2. linii	!	!	!	!	!
0D\	A-	2dd,\	-i	.	.	2.f\	.
.	.	(2.d/	A-	.	.	.	.
!	!	!	!	!	!	!LO:TX:t=P:problem=kreska pseudotaktowa	!
.	.	.	.	.	.	4e\	.
=5-	=5-	=5-	=5-	=5-	=5-	=5-	=5-
.	.	.	.	2r	.	1d\	.
.	.	4e/)	.	.	.	.	.
.	.	(4f/	-gnus	1d\	.	.	.
!	!	!LO:TX:t=P:problem=kreska pseudotaktowa	!	!	!	!	!
.	.	4g/)	.	.	.	.	.
1AA/	-gnus	1a\	De-	.	.	1e\	.
!	!	!	!	!LO:TX:t=P:problem=kreska pseudotaktowa	!	!	!
!	!	!	!	!LO:TX:t=P:problem=# below	!	!	!
.	.	.	.	2c#X\	A-	.	.
=6-	=6-	=6-	=6-	=6-	=6-	=6-	=6-
!	!	!LO:TX:t=P:problem=kreska pseudotaktowa	!	!	!	!	!
1.D\	De-	1a\	-i	2.d\	-gnus	1.f\	.
.	.	.	.	8c\L	.	.	.
!	!	!	!	!LO:TX:t=P:problem=kreska pseudotaktowa	!	!	!
.	.	.	.	8B\J	.	.	.
.	.	1r	.	4A/	De-	.	.
.	.	.	.	4B\	.	.	.
!LO:TX:t=P:problem=kreska pseudotaktowa	!	!	!	!	!	!	!
2C/	.	.	.	2.c\	.	1e\	.
=7-	=7-	=7-	=7-	=7-	=7-	=7-	=7-
*lig	*	*	*	*	*	*	*
1F\	.	2.a\	.	.	.	.	.
.	.	.	.	4B\	.	.	.
!	!	!	!	!	!	!LO:TX:t=P:problem=kreska pseudotaktowa	!
.	.	.	.	1A\	.	2d\	.
.	.	4b\	.	.	.	.	.
*col	*	*	*	*	*	*	*
*2\right	*	*	*	*	*	*	*
2.E\	.	4cc\	.	.	.	2e\	.
.	.	4b\	.	.	.	.	.
!	!	!	!	!LO:TX:t=P:problem=kreska pseudotaktowa	!	!	!
!	!	!	!	!LO:N:acc=-	!	!	!
*	*	*2\left	*	*	*	*	*
.	.	2ee\	.	2Gn/	.	1g\	.
!	!	!LO:TX:t=P:2\left:problem	!	!	!	!	!
!	!	!LO:TX:t=P:problem=kreska pseudotaktowa	!	!	!	!	!
*Xlig	*	*	*	*	*	*	*
!LO:TX:t=P:problem=kreska pseudotaktowa	!	!	!	!	!	!	!
4D/	.	.	.	.	.	.	.
*Xcol	*	*	*	*	*	*	*
=8-	=8-	=8-	=8-	=8-	=8-	=8-	=8-
2C/	.	2r	.	1.A\	.	.	.
*	*	*2\right	*	*	*	*	*
!	!	!LO:TX:t=P:problem=kreska pseudotaktowa	!	!	!	!	!
4D/	.	2a\	A-	.	.	4f\	.
!LO:TX:t=P:problem=kreska pseudotaktowa	!	!	!	!	!	!LO:TX:t=P:problem=kreska pseudotaktowa	!
4C/	.	.	.	.	.	4e\	.
4BB/	.	1.dd\	-gnus	.	.	2.d\	.
4AA/	.	.	.	.	.	.	.
!	!	!	!	!LO:TX:t=P:problem=# below	!	!	!
2BB/	.	.	.	2G#X/	.	.	.
!	!	!	!	!	!	!LO:TX:t=P:problem=kreska pseudotaktowa	!
.	.	.	.	.	.	4e\	.
=9-	=9-	=9-	=9-	=9-	=9-	=9-	=9-
!LO:TX:t=P:problem=kreska pseudotaktowa	!	!	!	!	!	!	!
1AA/	-i	.	.	2A/	-i	4f\	.
.	.	.	.	.	.	4e\	.
!	!	!LO:TX:t=P:problem=kreska pseudotaktowa	!	!LO:TX:t=P:problem=kreska pseudotaktowa	!	!	!
*	*	*	*	*	*	*lig	*
.	.	2cc\	De-	2A/	.	1a\	.
*	*	*lig	*	*	*	*	*
1r	.	1b\	.	2B\	qui	.	.
.	.	.	.	4B\	tol-	1g\	.
*	*	*	*	*	*	*Xlig	*
.	.	.	.	4c\	-lis	.	.
=10-	=10-	=10-	=10-	=10-	=10-	=10-	=10-
2r	.	1a\	.	1.d\	pec-	.	.
2D/	qui	.	.	.	.	2f#X\	.
!LO:TX:t=P:problem=kreska pseudotaktowa	!	!	!	!	!	!LO:TX:t=P:problem=# above	!
*	*	*Xlig	*	*	*	*	*
!	!	!	!	!	!	!LO:TX:t=P:problem=kreska pseudotaktowa	!
2E\	tol-	1.g\	-i	.	.	1e\	-i
!	!	!	!	!LO:TX:t=P:problem=kreska pseudotaktowa	!	!	!
4E\	-lis	.	.	2c\	-ca-	.	.
4F\	pec-	.	.	.	.	.	.
=11-	=11-	=11-	=11-	=11-	=11-	=11-	=11-
2G\	-ca-	.	.	2B\	-ta	0r	.
*	*	*custos:a	*	*	*	*	*
!	!	!LO:TX:t=Imum.	!	!	!	!	!
!	!	!LO:TX:t=P::problem=kreska pseudotaktowa&colon;między nutą a kropką	!	!	!	!	!
!LO:TX:t=P:problem=kreska pseudotaktowa	!	!	!	!	!	!	!
2E\	-ta	2g/	qui	4e\	mun-	.	.
*	*	*	*	*custos:c	*	*	*
.	.	.	.	4d\	.	.	.
!	!	!LO:LB:g=original	!	!LO:LB:g=original	!	!	!
1F\	mun-	2a\	.	4c\	.	.	.
.	.	.	.	4B\	.	.	.
.	.	4a\	tol-	1A\	.	.	.
!	!	!LO:TX:t=P:problem=kreska pseudotaktowa	!	!	!	!	!
.	.	4b\	-lis	.	.	.	.
=12-	=12-	=12-	=12-	=12-	=12-	=12-	=12-
1E\	-di	2cc\	pec-	.	.	2.e\	Mi-
!	!	!	!	!LO:TX:t=P:problem=kreska pseudotaktowa	!	!	!
!	!	!LO:TX:t=P:problem=kreska pseudotaktowa	!	!LO:TX:t=P:problem=# below	!	!	!
.	.	2b\	-ca-	2G#X/	.	.	.
.	.	.	.	.	.	4e\	-ſe-
!	!	!	!	!LO:TX:t=P:problem=kreska pseudotaktowa	!	!	!
2.A\	Mi-	4a\	-ta	1A\	-di	2c\	-re-
.	.	4b\	.	.	.	.	.
*	*	*	*	*	*	*custos:d	*
!	!	!	!	!	!	!LO:TX:t=P:problem=kreska pseudotaktowa	!
.	.	1cc\	mun-	.	.	2A/	-re
4A\	-ſe-	.	.	.	.	.	.
!	!	!	!	!	!	!LO:PB:g=original	!
=13-	=13-	=13-	=13-	=13-	=13-	=13-	=13-
!LO:TX:t=P:problem=# above	!	!	!	!	!	!	!
2F#X\	-re-	.	.	0r	.	2.d\	.
*custos:G	*	*	*	*	*	*	*
!LO:TX:t=P:problem=kreska pseudotaktowa	!	!	!	!	!	!	!
2D/	-re	4b\	.	.	.	.	.
!LO:LB:g=original	!	!	!	!	!	!	!
!	!	!LO:TX:t=P:problem=kreska pseudotaktowa	!	!	!	!	!
.	.	4a\	.	.	.	4c/	.
!	!	!LO:TX:t=P:problem=kreska pseudotaktowa	!	!	!	!	!
2.G\	no-	1b\	-di	.	.	4B/	no-
.	.	.	.	.	.	4A/	.
!	!	!	!	!	!	!LO:TX:t=P::problem=kreska pseudotaktowa&colon;między nutą a kropką	!
.	.	.	.	.	.	2.g\	.
4Fny\	.	.	.	.	.	.	.
=14-	=14-	=14-	=14-	=14-	=14-	=14-	=14-
4E\	.	00r	.	2.e\	Mi-	.	.
4D/	.	.	.	.	.	4f\	.
!LO:TX:t=P::problem=kreska pseudotaktowa&colon;między nutą a kropką	!	!	!	!	!	!	!
2.C/	.	.	.	.	.	2.e\	.
.	.	.	.	4e\	-ſe-	.	.
.	.	.	.	2c\	-re-	.	.
8D\L	.	.	.	.	.	8f\L	.
8E\J	.	.	.	.	.	8g\J	.
!	!	!	!	!LO:TX:t=P:problem=kreska pseudotaktowa	!	!LO:TX:t=P::problem=kreska pseudotaktowa&colon;między nutą a kropką	!
2.F\	.	.	.	2A/	-re	2.a\	.
=15-	=15-	=15-	=15-	=15-	=15-	=15-	=15-
.	.	.	.	2.d\	.	.	.
4E\	.	.	.	.	.	4g\	.
!LO:TX:t=P:problem=kreska pseudotaktowa	!	!	!	!	!	!	!
2D/	.	.	.	.	.	4f\	.
!	!	!	!	!	!	!LO:TX:t=P:problem=kreska pseudotaktowa	!
.	.	.	.	4c\	no-	4e\	.
2.G\	.	.	.	2.B\	.	2d\	.
.	.	.	.	.	.	2.g\	.
!LO:TX:t=P:problem=kreska pseudotaktowa	!	!	!	!LO:TX:t=P:problem=kreska pseudotaktowa	!	!	!
4F\	.	.	.	4A/	.	.	.
=16-	=16-	=16-	=16-	=16-	=16-	=16-	=16-
4E\	.	2.ee\	Mi-	1G/	.	.	.
4D/	.	.	.	.	.	4f\	.
4C/	.	.	.	.	.	2.e\	.
!LO:TX:t=P:problem=kreska pseudotaktowa	!	!LO:TX:t=P:problem=kreska pseudotaktowa	!	!	!	!	!
4BB/	.	4ee\	-ſe-	.	.	.	.
1.AA/	.	2cc\	-re-	4A/	.	.	.
.	.	.	.	4B\	.	4d\	.
!	!	!	!	!LO:TX:t=P::problem=kreska pseudotaktowa&colon;między nutą a kropką	!	!	!
.	.	2a\	-re	2.c\	.	4c/	.
!	!	!	!	!	!	!LO:TX:t=P:problem=kreska pseudotaktowa	!
.	.	.	.	.	.	4B/	.
=17-	=17-	=17-	=17-	=17-	=17-	=17-	=17-
.	.	2cc\	no-	.	.	2A/	.
.	.	.	.	4d\	.	.	.
!LO:TX:t=P:problem=kreska pseudotaktowa	!	!	!	!	!	!	!
!LO:TX:t=P:problem=# above	!	!LO:TX:t=P::problem=kreska pseudotaktowa&colon;między nutą a kropką	!	!	!	!	!
2GG#X/	.	2.b\	.	1e\	.	2B/	.
*lig	*	*	*	*	*	*	*
1AA/	.	.	.	.	.	2c/	.
.	.	4a\	.	.	.	.	.
!	!	!	!	!LO:TX:t=P:problem=kreska pseudotaktowa	!	!LO:TX:t=P::problem=kreska pseudotaktowa&colon;między nutą a kropką	!
.	.	1a\	.	2c\	-bis	2.f\	.
=18-	=18-	=18-	=18-	=18-	=18-	=18-	=18-
1BB-X/	.	.	.	1.d\	Mi-	.	.
.	.	.	.	.	.	4e\	.
.	.	2g/	.	.	.	4d\	.
.	.	.	.	.	.	4e\	.
!	!	!LO:TX:t=P:problem=kreska pseudotaktowa	!	!	!	!LO:TX:t=P:problem=kreska pseudotaktowa	!
*Xlig	*	*	*	*	*	*	*
0.AA/	.	0a\	.	.	.	2f\	.
!	!	!	!	!LO:TX:t=P:problem=kreska pseudotaktowa	!	!	!
!	!	!	!	!LO:TX:t=P:problem=# below	!	!	!
*	*	*	*	*	*	*lig	*
.	.	.	.	2c#X\	-ſe-	1e\	.
=19-	=19-	=19-	=19-	=19-	=19-	=19-	=19-
.	.	.	.	2.f\	-re-	.	.
.	.	.	.	.	.	1d\	.
.	.	.	.	4f\	-re	.	.
.	.	0.a\;<	-bis	1e\	no-	.	.
*	*	*	*	*	*	*Xlig	*
!	!	!	!	!	!	!LO:TX:t=P:problem=# below	!
.	.	.	.	.	.	2c#X/	.
=20-	=20-	=20-	=20-	=20-	=20-	=20-	=20-
0D\;<	-bis	.	.	0d\	-bis	0d\;	-bis
!LO:PB:g=original	!	!LO:LB:g=original	!	!LO:LB:g=original	!	!LO:LB:g=original	!
=21||-	=21||-	=21||-	=21||-	=21||-	=21||-	=21||-	=21||-
*M2/1	*	*M2/1	*	*M2/1	*	*M2/1	*
*met(c|)	*	*met(c|)	*	*met(c|)	*	*met(c|)	*
!	!	!	!	!	!	!LO:TX:t=2dum	!
!	!	!	!	!LO:TX:t=2dum.	!	!LO:TX:t=P:problem=kreska pseudotaktowa	!
00r	.	1a\	A-	00r	.	0r	.
.	.	2d/	-gnus	.	.	.	.
.	.	2.a\	De-	.	.	.	.
=22-	=22-	=22-	=22-	=22-	=22-	=22-	=22-
.	.	.	.	.	.	1d\	A-
.	.	4g/	.	.	.	.	.
.	.	4a\	.	.	.	.	.
!	!	!LO:TX:t=P:problem=kreska pseudotaktowa	!	!	!	!	!
.	.	4b\	.	.	.	.	.
.	.	2cc\	.	.	.	2A/	-gnus
.	.	2b\	.	.	.	2.d\	De-
=23-	=23-	=23-	=23-	=23-	=23-	=23-	=23-
!	!	!LO:TX:t=P:problem=kreska pseudotaktowa	!	!LO:TX:t=P:problem=kreska pseudotaktowa	!	!	!
00r	.	1a\	.	0r	.	.	.
.	.	.	.	.	.	4c/	.
.	.	.	.	.	.	4d\	.
!	!	!	!	!	!	!LO:TX:t=P:problem=kreska pseudotaktowa	!
.	.	.	.	.	.	4e\	.
.	.	2d/	.	.	.	1f\	.
.	.	1dd\	.	.	.	.	.
=24-	=24-	=24-	=24-	=24-	=24-	=24-	=24-
!LO:TX:t=P:problem=kreska pseudotaktowa	!	!	!	!	!	!	!
.	.	.	.	1A\	A-	1e\	-i
.	.	2cc#X\	.	.	.	.	.
!	!	!LO:TX:t=P:problem=kreska pseudotaktowa	!	!	!	!LO:TX:t=P:problem=kreska pseudotaktowa	!
.	.	0dd\	-i	2D/	-gnus	0f\	A-
.	.	.	.	2.A/	.	.	.
=25-	=25-	=25-	=25-	=25-	=25-	=25-	=25-
1D\	A-	.	.	.	.	.	.
.	.	.	.	4G/	De-	.	.
.	.	.	.	4A/	.	.	.
!	!	!	!	!LO:TX:t=P:problem=kreska pseudotaktowa	!	!	!
.	.	.	.	4B\	.	.	.
2AA/	-gnus	0r	.	4c\	.	2e\	-gnus
.	.	.	.	4B\	.	.	.
2.D/	De-	.	.	4A/	.	2.f\	.
.	.	.	.	8G/L	.	.	.
!	!	!	!	!LO:TX:t=P:problem=kreska pseudotaktowa	!	!	!
.	.	.	.	8A/J	.	.	.
=26-	=26-	=26-	=26-	=26-	=26-	=26-	=26-
!	!	!LO:TX:t=P:problem=kreska pseudotaktowa	!	!	!	!	!
.	.	.	.	1B-X\	.	.	.
4C/	.	.	.	.	.	4e\	De-
4D/	.	.	.	.	.	4f\	.
!LO:TX:t=P:problem=kreska pseudotaktowa	!	!	!	!	!	!LO:TX:t=P:problem=kreska pseudotaktowa	!
4E\	.	.	.	.	.	4g\	.
2.F\	.	1r	.	2A/	.	1a\	.
.	.	.	.	1d\	.	.	.
4G\	.	.	.	.	.	.	.
=27-	=27-	=27-	=27-	=27-	=27-	=27-	=27-
!	!	!	!	!	!	!LO:TX:t=P:problem=kreska pseudotaktowa	!
2A\	.	1a\	A-	.	.	1e\	-i
2.AA/	.	.	.	4c\	.	.	.
!	!	!	!	!LO:TX:t=P:problem=kreska pseudotaktowa	!	!	!
.	.	.	.	4B\	.	.	.
.	.	2e/	-gnus	1c\	.	1.e\	De-
4BB/	.	.	.	.	.	.	.
4C/	.	2.a\	De-	.	.	.	.
!LO:TX:t=P:problem=kreska pseudotaktowa	!	!	!	!	!	!	!
4AA/	.	.	.	.	.	.	.
=28-	=28-	=28-	=28-	=28-	=28-	=28-	=28-
1F\	.	.	.	4c\	.	.	.
.	.	4g/	.	4B\	.	.	.
.	.	4a\	.	1A\	.	2d\	.
!	!	!LO:TX:t=P:problem=kreska pseudotaktowa	!	!	!	!	!
.	.	4b\	.	.	.	.	.
!LO:TX:t=P:problem=cezura na 1. linii	!	!	!	!	!	!LO:TX:t=P:problem=cezura na 2. linii	!
2E,\	-i	2cc\	.	.	.	1e\,	-i
!	!	!	!	!LO:TX:t=P:problem=kreska pseudotaktowa	!	!	!
2E\	qui	2b\	.	2G/	.	.	.
=29-	=29-	=29-	=29-	=29-	=29-	=29-	=29-
!	!	!LO:TX:t=P:problem=kreska pseudotaktowa	!	!LO:TX:t=P:problem=cezura na 2. linii	!	!	!
4A\	.	1a\	-i	2A,/	-i	2e\	qui
4G\	.	.	.	.	.	.	.
4F\	tol-	.	.	2A/	qui	4a\	.
!	!	!	!	!	!	!LO:TX:t=P:problem=kreska pseudotaktowa	!
4E\	.	.	.	.	.	4g\	.
2D/	.	1r	.	4d\	.	4f\	tol-
.	.	.	.	4c\	.	4e\	.
1G\	.	.	.	4B\	tol-	2.d\	.
!	!	!	!	!LO:TX:t=P:problem=kreska pseudotaktowa	!	!	!
.	.	.	.	4A/	.	.	.
=30-	=30-	=30-	=30-	=30-	=30-	=30-	=30-
.	.	2r	.	1B\	.	.	.
.	.	.	.	.	.	8e\L	.
.	.	.	.	.	.	8f\J	.
!LO:TX:t=P:problem=kreska pseudotaktowa	!	!LO:TX:t=P:problem=kreska pseudotaktowa	!	!	!	!	!
2GG/	.	2b\	pec-	.	.	4g\	.
!	!	!	!	!	!	!LO:TX:t=P:problem=kreska pseudotaktowa	!
.	.	.	.	.	.	4f\	.
!LO:TX:t=P:problem=cezura na 1. linii	!	!	!	!	!	!	!
2C,/	-lis	4ee\	-ca-	2c\	-lis	2e\	.
.	.	4dd\	.	.	.	.	.
!	!	!	!	!LO:TX:t=P:problem=kreska pseudotaktowa	!	!LO:TX:t=P:problem=kreska pseudotaktowa	!
2C/	pec-	4cc\	.	2A/	.	2e\	-lis
!	!	!LO:TX:t=P:problem=kreska pseudotaktowa	!	!	!	!	!
.	.	4b\	.	.	.	.	.
=31-	=31-	=31-	=31-	=31-	=31-	=31-	=31-
*	*	*	*	*	*	*custos:c	*
2D/	-ca-	2a\	.	4A/	pec-	2f\	pec-
.	.	.	.	4B\	-ca-	.	.
!	!	!	!	!	!	!LO:LB:g=original	!
!LO:TX:t=P:problem=kreska pseudotaktowa	!	!LO:TX:t=P:problem=# above	!	!	!	!	!
2E\	-ta	2g#X/	-ta	4c\	.	2.e\	.
!	!	!	!	!LO:TX:t=P:problem=kreska pseudotaktowa	!	!	!
.	.	.	.	4B\	.	.	.
2F\	mun-	1.a\	mun-	2A/	.	.	.
.	.	.	.	.	.	8d\L	-ca-
.	.	.	.	.	.	8e\J	.
!	!	!	!	!	!	!LO:TX:t=P:problem=kreska pseudotaktowa	!
2D/	.	.	.	2.d\	.	2.f\	.
=32-	=32-	=32-	=32-	=32-	=32-	=32-	=32-
*lig	*	*	*	*	*	*	*
1A\	.	.	.	.	.	.	.
.	.	.	.	8c\L	.	8e\L	.
*	*	*	*	*custos:c	*	*	*
.	.	.	.	8B\J	.	8d\J	.
*	*	*custos:G	*	*	*	*	*
!	!	!	!	!LO:LB:g=original	!	!	!
!	!	!LO:TX:t=2dum.	!	!	!	!	!
.	.	[2cc\	.	4c\	.	4e\	.
!	!	!	!	!LO:TX:t=P:problem=kreska pseudotaktowa	!	!LO:TX:t=P:problem=kreska pseudotaktowa	!
.	.	.	.	4d\	-ta	4f\	-ta
*custos:C	*	*	*	*	*	*	*
!	!	!LO:LB:g=original	!	!	!	!	!
!LO:TX:t=2dum	!	!	!	!	!	!	!
1G\	.	2cc\]	.	4e\	.	1g\	.
.	.	.	.	8d\L	mun-	.	.
.	.	.	.	8c\J	.	.	.
.	.	2b\	.	2d\	.	.	.
!	!	!	!	!LO:TX:t=P:problem=kreska pseudotaktowa	!	!	!
*Xlig	*	*	*	*	*	*	*
!LO:LB:g=original	!	!	!	!	!	!	!
=33-	=33-	=33-	=33-	=33-	=33-	=33-	=33-
!LO:TX:t=P:problem=kreska pseudotaktowa	!	!LO:TX:t=P:problem=cezura na 4. linii	!	!	!	!	!
1C/	-di	2cc,\	-di	2e\	.	2g\	Mun-
.	.	1g\	.	1c\	-di	1e\	-di
00r	.	.	.	.	.	.	.
!	!	!LO:TX:t=P:problem=kreska pseudotaktowa	!	!LO:TX:t=P:problem=kreska pseudotaktowa	!	!LO:TX:t=P:problem=kreska pseudotaktowa	!
.	.	2g/	Mi-	2B\	.	2d\	Mi-
=34-	=34-	=34-	=34-	=34-	=34-	=34-	=34-
.	.	2g/	-ſe-	2c\	Mi-	2e\	-ſe-
!	!	!	!	!LO:TX:t=P:problem=kreska pseudotaktowa	!	!	!
.	.	2a\	-rere	2A/	-ſe-	2f#X\	-re-
.	.	1.b-X\	no-	4G/	-re-	1.g\	-re
.	.	.	.	4A/	.	.	.
.	.	.	.	4B-X\	.	.	.
!	!	!	!	!LO:TX:t=P:problem=kreska pseudotaktowa	!	!	!
.	.	.	.	4c\	.	.	.
=35-	=35-	=35-	=35-	=35-	=35-	=35-	=35-
!LO:TX:t=P:problem=kreska pseudotaktowa	!	!	!	!	!	!	!
.	.	.	.	2.d\	.	.	.
.	.	1a\	.	.	.	4f\	.
!	!	!	!	!	!	!LO:TX:t=P:problem=kreska pseudotaktowa	!
.	.	.	.	4c\	.	4e\	no-
1r	.	.	.	4B-X\	-re	4d\	.
.	.	.	.	4A/	.	4c/	.
!	!	!LO:TX:t=P:problem=kreska pseudotaktowa	!	!LO:TX:t=P:problem=kreska pseudotaktowa	!	!	!
.	.	2g/	.	2B-\	no-	1d\	.
=36-	=36-	=36-	=36-	=36-	=36-	=36-	=36-
1A\	Mi-	2f/	.	2.A/	.	.	.
!	!	!	!	!	!	!LO:TX:t=P:problem=# below	!
!	!	!	!	!	!	!LO:TX:t=P:problem=kreska pseudotaktowa	!
.	.	2e/	.	.	.	2c#X/	.
.	.	.	.	4G/	-bis	.	.
!	!	!LO:TX:t=P:problem=kreska pseudotaktowa	!	!	!	!	!
2D/	-ſe-	1d/	-bis	4r	.	2d\	-bis
.	.	.	.	4F/	Mi-	.	.
1G\	-re-	.	.	8G/L	-ſe-	2d\	.
.	.	.	.	8A/	.	.	.
!	!	!	!	!LO:TX:t=P:problem=♭ above	!	!	!
.	.	.	.	8B-X/	.	.	.
!	!	!	!	!LO:TX:t=P:problem=kreska pseudotaktowa	!	!	!
.	.	.	.	8c/J	.	.	.
=37-	=37-	=37-	=37-	=37-	=37-	=37-	=37-
.	.	0r	.	1d\	.	2A/	Mi-
!LO:TX:t=P:problem=# above	!	!	!	!	!	!	!
2F#X\	-re	.	.	.	.	1d\	-ſe-
1B-X\	no-	.	.	1G/	.	.	.
!	!	!	!	!	!	!LO:TX:t=P:problem=kreska pseudotaktowa	!
.	.	.	.	.	.	2B-X/	-re-
=38-	=38-	=38-	=38-	=38-	=38-	=38-	=38-
!	!	!LO:TX:t=P:problem=kreska pseudotaktowa	!	!	!	!	!
4A\	.	1r	.	2D/	.	1f\	-re
4G\	.	.	.	.	.	.	.
4F\	.	.	.	1d\	.	.	.
8E\L	.	.	.	.	.	.	.
8D\J	.	.	.	.	.	.	.
!LO:TX:t=P:problem=kreska pseudotaktowa	!	!	!	!	!	!	!
1A\	-bis	1a\	Mi-	.	.	2e\	no-
!	!	!	!	!LO:TX:t=P:problem=kreska pseudotaktowa	!	!	!
.	.	.	.	2c\	-re	1a\	-bis
=39-	=39-	=39-	=39-	=39-	=39-	=39-	=39-
*	*	*	*	*lig	*	*	*
0r	.	2d/	.	1f\	no-	.	.
!	!	!	!	!	!	!LO:TX:t=P:problem=kreska pseudotaktowa	!
*	*	*	*	*	*	*	*ij
.	.	1dd\	-ſe-	.	.	2d\	no-
.	.	.	.	1e\	.	1.g\	.
.	.	2cc\	-re-	.	.	.	.
*	*	*	*	*Xlig	*	*	*
=40-	=40-	=40-	=40-	=40-	=40-	=40-	=40-
1D\	Mi-	2b-X\	-re	1.d\	.	.	.
!	!	!LO:TX:t=P:problem=kreska pseudotaktowa	!	!	!	!	!
.	.	2a\	.	.	.	2f\	.
2AA/	-ſe-	1.cc\	no-	.	.	1e\	.
!LO:TX:t=P:problem=kreska pseudotaktowa	!	!	!	!LO:TX:t=P:problem=kreska pseudotaktowa	!	!	!
2A\	-re-	.	.	2A/	.	.	.
=41-	=41-	=41-	=41-	=41-	=41-	=41-	=41-
!	!	!	!	!LO:TX:t=P:problem=cezura pod 1. linią	!	!	!
2F#X\	-re	.	.	2D,/	-bis	[y00d\	-bis
4G\	.	2b-X\	.	1G/	Mi-	.	.
!LO:TX:t=P:problem=kreska pseudotaktowa	!	!	!	!	!	!	!
4A\	.	.	.	.	.	.	.
2B-X\	.	1dd\	.	.	.	.	.
*	*	*	*	*custos:B-	*	*	*
1A\	.	.	.	2F/	-ſe-	.	.
!	!	!	!	!LO:PB:g=original	!	!	!
=42-	=42-	=42-	=42-	=42-	=42-	=42-	=42-
.	.	2d/	.	1.B-X\	-re-	.	.
2G\	.	1g\	.	.	.	.	.
0D\	no-	.	.	.	.	.	.
!	!	!LO:TX:t=P:problem=# below	!	!	!	!	!
!	!	!LO:TX:t=P:problem=kreska pseudotaktowa	!	!	!	!	!
.	.	2f#X/	.	1A\	-re	.	.
=43-	=43-	=43-	=43-	=43-	=43-	=43-	=43-
!	!	!	!	!LO:TX:t=P:problem=kreska pseudotaktowa	!	!	!
.	.	2.b-X\	.	.	.	0.dyy\]	.
.	.	.	.	4G/	no-	.	.
.	.	8a\L	.	4F/	.	.	.
.	.	8g\J	.	.	.	.	.
0D\;<	-bis	0a\	-bis	1G/	.	.	.
*	*	*	*	*	*	*	*Xij
!	!	!	!	!LO:N:vis=0	!	!	!
.	.	.	.	1F#X/	-bis.	.	.
!LO:LB:g=original	!	!LO:LB:g=original	!	!	!	!LO:LB:g=original	!
=44||-	=44||-	=44||-	=44||-	=44||-	=44||-	=44||-	=44||-
*M2/1	*	*M2/1	*	*M2/1	*	*M2/1	*
*met(c|)	*	*met(c|)	*	*met(c|)	*	*met(c|)	*
!	!	!	!	!	!	!LO:TX:t=3tium	!
1D\	A-	1f/	A-	1A\	A-	1d\	A-
!	!	!	!	!	!	!LO:TX:t=P:problem=# below	!
2AA/	-gnus	2e/	-gnus	2A/	-gnus	2c#X/	-gnus
!	!	!	!	!	!	!LO:TX:t=P::problem=kreska pseudotaktowa&colon;między nutą a kropką	!
2.D/	De-	2.f/	De	2.A/	.	2.d\	.
=45-	=45-	=45-	=45-	=45-	=45-	=45-	=45-
4D/	-i	4f/	i	4A/	De-	4d\	De-
!LO:TX:t=P:problem=kreska pseudotaktowa	!	!LO:TX:t=P:problem=kreska pseudotaktowa	!	!LO:TX:t=P:problem=kreska pseudotaktowa	!	!	!
2C/	qui	2g/	qui	2c\	-i	4e\	-i
.	.	.	.	.	.	2e\	qui
1F\	.	1a\	.	2c\	qui	.	.
.	.	.	.	.	.	8d\L	tol-
.	.	.	.	.	.	8c\J	.
!	!	!	!	!	!	!LO:TX:t=P:problem=kreska pseudotaktowa	!
.	.	.	.	4B\	tol	2d\	-lis
!	!	!	!	!LO:TX:t=P:problem=kreska pseudotaktowa	!	!	!
.	.	.	.	4A/	.	.	.
=46-	=46-	=46-	=46-	=46-	=46-	=46-	=46-
2E\	tol-	2g#X\	tol-	2B\	.	2e\	.
!LO:TX:t=P:problem=kreska pseudotaktowa	!	!LO:TX:t=P:problem=kreska pseudotaktowa	!	!	!	!	!
2E\	-lis	2g#\	-lis	2B\	lis	2e\	pec-
2A\	pec-	2a\	pec-	4.c\	pec-	2e\	-ca-
.	.	.	.	8c\	-ca-	.	.
!LO:TX:t=P:problem=# below	!	!	!	!LO:TX:t=P::problem=kreska pseudotaktowa&colon;między nutą a kropką	!	!LO:TX:t=P:problem=kreska pseudotaktowa	!
2G#X\	-ca-	2b\	-ca-	2.B\	-ta	2e\	-ta
=47-	=47-	=47-	=47-	=47-	=47-	=47-	=47-
1A\	-ta	1cc\	-ta	.	.	1e\	mun-
.	.	.	.	8A/L	mun-	.	.
.	.	.	.	8G/J	.	.	.
.	.	.	.	2A/	.	.	.
!	!	!	!	!LO:TX:t=P:problem=kreska pseudotaktowa	!	!	!
!LO:TX:t=P:problem=kreska pseudotaktowa	!	!LO:TX:t=P:problem=kreska pseudotaktowa	!	!LO:TX:t=P:problem=# above	!	!LO:TX:t=P:problem=kreska pseudotaktowa	!
1E\	mundi	1b\	mundi	1G#X/	-di	1e\	-di
=48-	=48-	=48-	=48-	=48-	=48-	=48-	=48-
00r	.	00r	.	1r	.	2.e\	.
.	.	.	.	.	.	4e\	.
.	.	.	.	2.A/	Do-	2c/	Do-
!	!	!	!	!	!	!LO:TX:t=P:problem=kreska pseudotaktowa	!
.	.	.	.	.	.	2A/	-na
*	*	*	*	*custos:F	*	*	*
!	!	!	!	!LO:TX:t=P:problem=kreska pseudotaktowa	!	!	!
!	!	!	!	!LO:TX:t=3tium.	!	!	!
.	.	.	.	4A/	-na	.	.
!	!	!	!	!LO:LB:g=original	!	!	!
=49-	=49-	=49-	=49-	=49-	=49-	=49-	=49-
.	.	.	.	2F#X/	no-	2.d\	no-
!	!	!	!	!LO:TX:t=P:problem=kreska pseudotaktowa	!	!	!
.	.	.	.	2D/	-bis	.	.
.	.	.	.	.	.	4c/	-bis
.	.	.	.	4G/	.	4B/	pa-
.	.	.	.	4Fny/	.	4c/	.
.	.	.	.	4F/	pa-	1d\	.
.	.	.	.	8E/L	.	.	.
.	.	.	.	8D/J	.	.	.
=50-	=50-	=50-	=50-	=50-	=50-	=50-	=50-
00r	.	2.g/	.	1E/	.	.	.
!	!	!	!	!	!	!LO:TX:t=P:problem=# below	!
!	!	!	!	!	!	!LO:TX:t=P:problem=kreska pseudotaktowa	!
.	.	.	.	.	.	2c#X/	.
.	.	4g/	.	.	.	.	.
!	!	!	!	!LO:TX:t=P:problem=kreska pseudotaktowa	!	!	!
.	.	2f/	Do-	1D/	-cem	2d\	-cem
!	!	!LO:TX:t=P:problem=kreska pseudotaktowa	!	!	!	!	!
.	.	2d/	-na	.	.	4.d\	Do-
!	!	!	!	!	!	!LO:TX:t=P:problem=kreska pseudotaktowa	!
.	.	.	.	.	.	8d\	-na
=51-	=51-	=51-	=51-	=51-	=51-	=51-	=51-
.	.	2e/	no-	0r	.	2c/	no-
.	.	2f/	-bis	.	.	2A/	-bis
.	.	2g/	pa-	.	.	2B/	pa-
*	*	*	*	*	*	*custos:d	*
!	!	!	!	!	!	!LO:TX:t=P:problem=kreska pseudotaktowa	!
!	!	!LO:TX:t=P:problem=kreska pseudotaktowa	!	!	!	!	!
.	.	2e/	.	.	.	2c/	.
!	!	!	!	!	!	!LO:LB:g=original	!
=52-	=52-	=52-	=52-	=52-	=52-	=52-	=52-
!LO:TX:t=P:problem=kreska pseudotaktowa	!	!	!	!	!	!	!
1r	.	4f/	.	2.d\	Do-	4d\	.
.	.	4g/	.	.	.	4e\	.
.	.	4a\	.	.	.	4f\	.
!	!	!LO:TX:t=P:problem=kreska pseudotaktowa	!	!	!	!	!
.	.	4b\	.	4d\	-na	4d\	.
2.A\	.	2.cc\	.	2c\	.	1e\	.
!	!	!	!	!LO:TX:t=P:problem=kreska pseudotaktowa	!	!	!
.	.	.	.	2A/	no-	.	.
4A\	Do-	4dd\	.	.	.	.	.
=53-	=53-	=53-	=53-	=53-	=53-	=53-	=53-
!	!	!LO:TX:t=P:problem=kreska pseudotaktowa	!	!	!	!LO:TX:t=P:problem=kreska pseudotaktowa	!
2G\	-na	1ee\	-cem	2B\	-bis	1g\,	-cem.
!LO:TX:t=P:problem=kreska pseudotaktowa	!	!	!	!	!	!	!
*	*	*	*	*lig	*	*	*
2E\	no-	.	.	1c\	pa-	.	.
2F\	.	0r	.	.	.	2.a\	.
*	*	*	*	*col	*	*	*
2D/	-bis	.	.	2.d\	.	.	.
.	.	.	.	.	.	4a\	Do-
*	*	*	*	*Xlig	*	*	*
=54-	=54-	=54-	=54-	=54-	=54-	=54-	=54-
*	*	*custos:b	*	*	*	*	*
!	!	!LO:TX:t=3tium	!	!	!	!	!
!	!	!LO:TX:t=P:problem=kreska pseudotaktowa	!	!	!	!	!
*	*ij	*	*	*	*	*	*
2E\	Do-	.	.	.	.	2g\	-na
.	.	.	.	4c\	.	.	.
*	*	*	*	*Xcol	*	*	*
!LO:TX:t=P:problem=kreska pseudotaktowa	!	!	!	!LO:TX:t=P:problem=kreska pseudotaktowa	!	!LO:TX:t=P:problem=kreska pseudotaktowa	!
2C/	-na	.	.	2c\	.	2e\	no-
2.D/	no-	1r	.	4B\	.	2.f\	-bis
.	.	.	.	4A/	.	.	.
.	.	.	.	1A\	.	.	.
4C/	-bis	.	.	.	.	4e\	pa-
*	*Xij	*	*	*	*	*	*
!	!	!LO:PB:g=original	!	!	!	!	!
=55-	=55-	=55-	=55-	=55-	=55-	=55-	=55-
1BB/	pa-	1b\	Do-	.	.	1d\	.
!	!	!	!	!LO:TX:t=P:problem=# below	!	!	!
.	.	.	.	2G#X/	.	.	.
!LO:TX:t=P:problem=kreska pseudotaktowa	!	!	!	!LO:TX:t=P:problem=kreska pseudotaktowa	!	!	!
1AA/	-cem	1cc\	-na	1A\	-cem	4c/	.
.	.	.	.	.	.	4d\	.
.	.	.	.	.	.	4e\	.
!	!	!	!	!	!	!LO:TX:t=P:problem=kreska pseudotaktowa	!
.	.	.	.	.	.	4f\	.
=56-	=56-	=56-	=56-	=56-	=56-	=56-	=56-
2.E\	Do-	2b\	no-	0r	.	4g\	.
.	.	.	.	.	.	4f\	.
!	!	!LO:TX:t=P:problem=kreska pseudotaktowa	!	!	!	!	!
.	.	2g/	.	.	.	1e\	.
4E\	-na	.	.	.	.	.	.
*custos:E	*	*	*	*	*	*	*
!LO:TX:t=P:problem=kreska pseudotaktowa	!	!	!	!	!	!	!
!LO:TX:t=3tium	!	!	!	!	!	!	!
1F\	no-	2.a\	-bis	.	.	.	.
.	.	.	.	.	.	2d\	.
.	.	4b\	.	.	.	.	.
!LO:LB:g=original	!	!	!	!	!	!	!
=57-	=57-	=57-	=57-	=57-	=57-	=57-	=57-
*	*	*lig	*	*	*	*	*
!	!	!	!	!	!	!LO:TX:t=P:problem=kreska pseudotaktowa	!
2E\	.	1cc\	pa-	2r	.	1e\	-cem
*	*	*	*	*	*ij	*	*
2C/	-bis	.	.	1A\	Do-	.	.
2D/	pa-	1b\	.	.	.	0r	.
2E\	.	.	.	2G#X/	-na	.	.
!	!	!	!	!LO:TX:t=P:problem=kreska pseudotaktowa	!	!	!
!	!	!	!	!LO:TX:t=P:problem=# below	!	!	!
*	*	*Xlig	*	*	*	*	*
=58-	=58-	=58-	=58-	=58-	=58-	=58-	=58-
!	!	!LO:TX:t=P:problem=cezura na 1. linii	!	!	!	!	!
1F\	.	2a,\	-cem.	4A/	no-	.	.
.	.	.	.	4B\	.	.	.
.	.	1a\	.	4c\	.	.	.
.	.	.	.	4d\	.	.	.
!LO:TX:t=P:problem=kreska pseudotaktowa	!	!	!	!	!	!	!
1E\	-cem	.	.	2e\	-bis	2.B/	Do-
!	!	!LO:TX:t=P:problem=# below	!	!	!	!	!
.	.	2g#X/	Do-	2E/	pa-	.	.
.	.	.	.	.	.	4B/	-na
=59-	=59-	=59-	=59-	=59-	=59-	=59-	=59-
!	!	!	!	!LO:TX:t=P:problem=kreska pseudotaktowa	!	!	!
2r	.	4a\	-na	1A\	-cem	1c\	no-
.	.	4b\	.	.	.	.	.
1AA/	Do-	4cc\	no-	.	.	.	.
.	.	4dd\	.	.	.	.	.
!	!	!	!	!	!	!LO:TX:t=P:problem=kreska pseudotaktowa	!
.	.	2.ee\	.	2r	.	1B/	-bis
!LO:TX:t=P:problem=# above	!	!	!	!	!	!	!
!LO:TX:t=P:problem=kreska pseudotaktowa	!	!	!	!	!	!	!
*	*	*	*	*	*Xij	*	*
2GG#X/	-na	.	.	4.B\	Do-	.	.
!	!	!LO:TX:t=P:problem=kreska pseudotaktowa	!	!	!	!	!
.	.	4dd\	.	.	.	.	.
.	.	.	.	8B\	-na	.	.
=60-	=60-	=60-	=60-	=60-	=60-	=60-	=60-
*	*	*	*	*custos:B	*	*	*
!	!	!	!	!LO:TX:t=P:problem=kreska pseudotaktowa	!	!	!
4AA/	no-	2cc\	-bis	1c\	no-	0r	.
4BB/	.	.	.	.	.	.	.
4C/	.	4e/	.	.	.	.	.
4D/	.	4f/	.	.	.	.	.
!	!	!	!	!LO:LB:g=original	!	!	!
4E\	.	4g/	pa-	2B\	.	.	.
4F\	.	4a\	.	.	.	.	.
!	!	!	!	!LO:SIC:v:s=2Gn	!	!	!
!	!	!	!	!LO:TX:t=P:problem=kreska pseudotaktowa	!	!	!
!	!	!	!	!LO:TX:t=P:problem=# below	!	!	!
1G\	.	4b\	.	2G#X/	-bis	.	.
!	!	!LO:TX:t=P:problem=kreska pseudotaktowa	!	!	!	!	!
.	.	4cc\	.	.	.	.	.
=61-	=61-	=61-	=61-	=61-	=61-	=61-	=61-
!	!	!	!	!	!	!LO:TX:t=P:problem=kreska pseudotaktowa	!
.	.	4dd\	.	2.A/	.	1r	.
.	.	4a\	.	.	.	.	.
!LO:TX:t=P:problem=kreska pseudotaktowa	!	!	!	!	!	!	!
2F\	.	2dd\	.	.	.	.	.
.	.	.	.	4B\	pa-	.	.
2.E\	-bis	1g\	-cem	4c\	.	2.e\	Do-
.	.	.	.	4G/	.	.	.
.	.	.	.	1c\	.	.	.
8D/L	pa-	.	.	.	.	4e\	-na
8C/J	.	.	.	.	.	.	.
=62-	=62-	=62-	=62-	=62-	=62-	=62-	=62-
1D\	-cem	1r	.	.	.	1f\	.
!	!	!	!	!LO:TX:t=P:problem=kreska pseudotaktowa	!	!	!
.	.	.	.	2B\	.	.	.
!LO:TX:t=P:problem=kreska pseudotaktowa	!	!	!	!LO:TX:t=P:problem=cezura na 1. linii	!	!	!
1C/	.	2r	.	2c,\	-cem	2e\	no-
!	!	!	!	!	!	!LO:TX:t=P:problem=kreska pseudotaktowa	!
*	*	*	*ij	*	*ij	*	*
.	.	1a\	no	4.A/	Do-	2c/	-bis
.	.	.	.	8A/	-na	.	.
=63-	=63-	=63-	=63-	=63-	=63-	=63-	=63-
0r	.	.	.	1B-X\	no-	2.d\	pa-
!	!	!LO:TX:t=P:problem=kreska pseudotaktowa	!	!	!	!	!
.	.	2g/	bis	.	.	.	.
.	.	.	.	.	.	4e\	.
*	*	*	*	*	*	*lig	*
.	.	4a\	pa-	2A/	.	1f\	.
.	.	4a\	-cem	.	.	.	.
*	*	*	*Xij	*	*	*	*
!	!	!	!	!LO:TX:t=P:problem=kreska pseudotaktowa	!	!	!
.	.	1d/	Do-	2F/	-bis	.	.
=64-	=64-	=64-	=64-	=64-	=64-	=64-	=64-
*	*	*	*	*	*	*custos:f	*
!	!	!	!	!	!	!LO:TX:t=P:problem=kreska pseudotaktowa	!
1r	.	.	.	2G/	pa-	1e\	.
!	!	!LO:TX:t=P:problem=# above	!	!	!	!	!
.	.	2c#X/	-na	2A/	.	.	.
!	!	!	!	!	!	!LO:LB:g=original	!
!	!	!LO:TX:t=P:problem=kreska pseudotaktowa	!	!	!	!	!
*	*	*	*	*	*	*Xlig	*
!	!	!	!	!LO:TX:t=P:problem=kreska pseudotaktowa	!	!	!
2r	.	4d/	no-	1D/	-cem	1f\	.
.	.	4e/	.	.	.	.	.
1D\	Do-	4f/	.	.	.	.	.
*	*	*custos:a	*	*	*	*	*
!	!	!LO:TX:t=P:problem=kreska pseudotaktowa	!	!	!	!	!
.	.	4g/	.	.	.	.	.
!	!	!LO:LB:g=original	!	!	!	!	!
=65-	=65-	=65-	=65-	=65-	=65-	=65-	=65-
.	.	2.a\	.	1r	.	2e\	.
!LO:TX:t=P:problem=# below	!	!	!	!	!	!	!
!LO:TX:t=P:problem=kreska pseudotaktowa	!	!	!	!	!	!	!
2C#X/	-na	.	.	.	.	1e\	-cem
.	.	4g/	-bis	.	.	.	.
*	*	*	*	*	*Xij	*	*
4D/	no-	1f/	pa-	2.A/	Do-	.	.
4E\	.	.	.	.	.	.	.
!	!	!	!	!	!	!LO:TX:t=P:problem=kreska pseudotaktowa	!
4F\	.	.	.	.	.	2d\	Do-
4G\	.	.	.	4A/	-na	.	.
=66-	=66-	=66-	=66-	=66-	=66-	=66-	=66-
!	!	!LO:TX:t=P:problem=kreska pseudotaktowa	!	!	!	!	!
1A\	.	1e/	-cem	1c\	.	4c/	-na
.	.	.	.	.	.	4d\	.
.	.	.	.	.	.	4e\	no-
.	.	.	.	.	.	4f\	.
2G\	.	1r	.	2B\	no-	1g\	.
!LO:TX:t=P:problem=kreska pseudotaktowa	!	!	!	!	!	!	!
2E\	-bis	.	.	2G/	.	.	.
=67-	=67-	=67-	=67-	=67-	=67-	=67-	=67-
1F\	pa-	2r	.	2.A/	-bis	4c/	.
.	.	.	.	.	.	4B/	.
.	.	1a\	Do-	.	.	4c/	-bis
!	!	!	!	!	!	!LO:TX:t=P:problem=kreska pseudotaktowa	!
.	.	.	.	4B\	pa-	4d\	.
*custos:AA	*	*	*	*	*	*	*
!LO:TX:t=P:problem=kreska pseudotaktowa	!	!	!	!	!	!	!
1E\	-cem	.	.	2c\	.	1e\	pa-
!	!	!LO:TX:t=P:problem=kreska pseudotaktowa	!	!	!	!	!
.	.	2g#X/	-na	2B\	.	.	.
!LO:LB:g=original	!	!	!	!	!	!	!
=68-	=68-	=68-	=68-	=68-	=68-	=68-	=68-
!	!	!	!	!	!	!LO:TX:t=P:problem=kreska pseudotaktowa	!
2.AA/	Do-	4a\	.	2A/	.	1c\	-cem
.	.	4b\	.	.	.	.	.
.	.	4cc\	no-	1A\	.	.	.
4AA/	-na	4a\	.	.	.	.	.
!LO:TX:t=P:problem=kreska pseudotaktowa	!	!	!	!	!	!	!
1BB-X/	no-	1dd\	.	.	.	2r	.
!	!	!	!	!LO:N:acc=-	!	!	!
.	.	.	.	2Gn/	.	4.d\	Do-
!	!	!	!	!	!	!LO:TX:t=P:problem=kreska pseudotaktowa	!
.	.	.	.	.	.	8d\	-na
=69-	=69-	=69-	=69-	=69-	=69-	=69-	=69-
2AA/	.	2cc\	.	2A/	.	1f\	no-
!LO:TX:t=P:problem=kreska pseudotaktowa	!	!	!	!	!	!	!
2FF/	-bis	1dd\	-bis	2A/	.	.	.
2GG/	.	.	.	2B-X\	.	2e\	-bis
!	!	!LO:TX:t=P:problem=# above	!	!	!	!LO:TX:t=P:problem=kreska pseudotaktowa	!
2AA/	pa-	2cc#X\	pa-	4A/	.	2e\	.
.	.	.	.	4G/	.	.	.
=70-	=70-	=70-	=70-	=70-	=70-	=70-	=70-
4D/	.	2dd\	-cem	4F/	.	2.d\	pa-
*	*	*	*	*custos:D	*	*	*
4E\	.	.	.	4E/	.	.	.
!	!	!	!	!LO:LB:g=original	!	!	!
!	!	!LO:TX:t=P:problem=kreska pseudotaktowa	!	!	!	!	!
4F\	.	2r	.	1D/	.	.	.
!LO:TX:t=P:problem=kreska pseudotaktowa	!	!	!	!	!	!	!
4G\	.	.	.	.	.	4e\	.
2.A\	.	1r	.	.	.	2f\	.
!	!	!	!	!	!	!LO:TX:t=P:problem=kreska pseudotaktowa	!
.	.	.	.	2C#X/	.	2e\	.
4G\	.	.	.	.	.	.	.
=71-	=71-	=71-	=71-	=71-	=71-	=71-	=71-
4F\	.	2r	.	4D/	.	2.c/	.
4E\	.	.	.	4E/	.	.	.
!LO:TX:t=P:problem=kreska pseudotaktowa	!	!	!	!	!	!	!
2D/	.	1d/	Do-	4F/	.	.	.
.	.	.	.	4G/	.	4d\	.
1AA/	.	.	.	0A\	.	2f\	.
!	!	!LO:TX:t=P:problem=# above	!	!	!	!	!
!	!	!LO:TX:t=P:problem=kreska pseudotaktowa	!	!	!	!LO:TX:t=P:problem=kreska pseudotaktowa	!
.	.	2c#X/	-na	.	.	2e\	.
=72-	=72-	=72-	=72-	=72-	=72-	=72-	=72-
0D\	.	4d/	no-	.	.	2f\	.
.	.	4e/	.	.	.	.	.
!	!	!	!	!	!	!LO:TX:t=P:problem=kreska pseudotaktowa	!
.	.	4f/	.	.	.	2d\	.
.	.	4g/	.	.	.	.	.
.	.	4a\	.	1A\	.	1.f\	.
.	.	4d/	-bis	.	.	.	.
.	.	1dd\	pa-	.	.	.	.
=73-	=73-	=73-	=73-	=73-	=73-	=73-	=73-
0.AA/	-cem	.	.	0.A\	-cem	.	.
.	.	4cc#X\	.	.	.	4e\	cem.
!	!	!LO:TX:t=P:problem=kreska pseudotaktowa	!	!	!	!	!
.	.	4b\	.	.	.	4d\	.
!	!	!LO:TX:t=P:problem=# above	!	!	!	!	!
.	.	0cc#X\	-cem	.	.	0e\;<	.
!LO:TX:a:t=A M D S.\nB. V. M H.	!	!LO:TX:a:t=A M O S \nM. M P. R\n1669	!	!	!	!	!
=-	=-	=-	=-	=-	=-	=-	=-
*-	*-	*-	*-	*-	*-	*-	*-
!!!system-decoration: [(s1,s2,s3,s4)]
!!!RDF**kern: > = above
!!!RDF**kern: < = below
!!!EED: Leszek Kubiak
!!!EST: 2021-03-12
!!!AIN: 1 alto 1 bass 1 soprn 1 tenor
!!!ENC: Kamil Watkowski
!!!END: 2021-02-28
